X:17
T:Athole Brose
R:Strathspey
B:The Athole Collection
M:C|
L:1/8
K:D
A|:F>D D/D/D A,>DD>G|F>D D/D/D G<B A>G|1 F>D D/D/D A,<D D>=F|
E/=F/G C>E c>GE>G:|2 F>D D/D/D A,<D D>=F|E/=F/G C>E c<G E>C||
|:D<d d>c d>ed>c|A<d d>e =f>de>c|dd=f>d e>df>d|=c>dc>G E<C G>E:|

